images_elementary_svg/cmd/sc_alignmiddle.svg

<svg height="16" width="16" xmlns="http://www.w3.org/2000/svg"><g transform="matrix(0 1 1 0 0 0)"><path d="m3.500038 6.500008h9.999757v7h-9.999757z" fill="#e9e9e9" stroke="#8c8c8c" stroke-linejoin="round" stroke-miterlimit="3" stroke-width=".999999"/><path d="m4.50016 7.500008h7.999814v5.000031h-7.999814z" fill="none" stroke="#fff" stroke-miterlimit="3"/><g stroke-width="1.000249"><path d="m1.499824 1.496269h14.000055v7.003598h-14.000055z" fill="#e9e9e9" fill-rule="evenodd" stroke="#8c8c8c" stroke-linejoin="round" stroke-miterlimit="0"/><path d="m2.50016 2.500069h11.999876v4.999894h-11.999876z" fill="none" stroke="#fff" stroke-linecap="round" stroke-miterlimit="2"/></g></g><g fill="#fcaf3e" stroke="#ce5c00" stroke-linejoin="round" stroke-miterlimit="0" transform="scale(1 -1)"><path d="m8.5-9.50016h3v2h-3z"/><path d="m3.5-9.50016h3v2h-3z"/><path d="m-1.5-9.50016h3v2h-3z"/><path d="m13.5-9.50016h3v2h-3z"/></g></svg>

<?xml version="1.0" encoding="UTF-8" standalone="no"?>
<svg
   xmlns:dc="http://purl.org/dc/elements/1.1/"
   xmlns:cc="http://creativecommons.org/ns#"
   xmlns:rdf="http://www.w3.org/1999/02/22-rdf-syntax-ns#"
   xmlns:svg="http://www.w3.org/2000/svg"
   xmlns="http://www.w3.org/2000/svg"
   xmlns:xlink="http://www.w3.org/1999/xlink"
   xmlns:sodipodi="http://sodipodi.sourceforge.net/DTD/sodipodi-0.dtd"
   xmlns:inkscape="http://www.inkscape.org/namespaces/inkscape"
   height="16"
   width="16"
   version="1.1"
   id="svg24"
   sodipodi:docname="sc_alignmiddle.svg"
   inkscape:version="0.92.3 (2405546, 2018-03-11)">
  <metadata
     id="metadata30">
    <rdf:RDF>
      <cc:Work
         rdf:about="">
        <dc:format>image/svg+xml</dc:format>
        <dc:type
           rdf:resource="http://purl.org/dc/dcmitype/StillImage" />
        <dc:title></dc:title>
      </cc:Work>
    </rdf:RDF>
  </metadata>
  <defs
     id="defs28">
    <radialGradient
       id="a"
       cx="2.25"
       cy="16"
       gradientTransform="matrix(0.53333333,0,0,0.11633788,-19.2,10.175389)"
       gradientUnits="userSpaceOnUse"
       r="16.875">
      <stop
         offset="0"
         id="stop2" />
      <stop
         offset="1"
         stop-opacity="0"
         id="stop4" />
    </radialGradient>
    <linearGradient
       id="b-6"
       gradientTransform="matrix(0.48571543,0,0,0.45629666,-34.78968,-5.7348509)"
       gradientUnits="userSpaceOnUse"
       x1="25.132275"
       x2="25.132275"
       y1="0.98520601"
       y2="47.013336">
      <stop
         offset="0"
         stop-color="#f4f4f4"
         id="stop1302" />
      <stop
         offset="1"
         stop-color="#dbdbdb"
         id="stop1304" />
    </linearGradient>
    <linearGradient
       id="a-7"
       gradientTransform="matrix(0.25378586,0,0,0.30501865,-43.521986,-5.5391346)"
       gradientUnits="userSpaceOnUse"
       x1="-51.786404"
       x2="-51.786404"
       y1="50.786446"
       y2="2.9062469">
      <stop
         offset="0"
         stop-opacity=".339506"
         id="stop2284" />
      <stop
         offset="1"
         stop-opacity=".246914"
         id="stop2286" />
    </linearGradient>
    <linearGradient
       id="a-3"
       gradientTransform="matrix(0.40540511,0,0,0.51351351,2.269687,-0.324319)"
       gradientUnits="userSpaceOnUse"
       x1="23.99999"
       x2="23.99999"
       y1="6.4736748"
       y2="41.526306">
      <stop
         offset="0"
         stop-color="#fff"
         id="stop1293" />
      <stop
         offset="0.05838298"
         stop-color="#fff"
         stop-opacity=".235294"
         id="stop1295" />
      <stop
         offset="1"
         stop-color="#fff"
         stop-opacity=".156863"
         id="stop1297" />
      <stop
         offset="1"
         stop-color="#fff"
         stop-opacity=".392157"
         id="stop1299" />
    </linearGradient>
    <linearGradient
       inkscape:collect="always"
       xlink:href="#a-3"
       id="linearGradient892"
       x1="13.999705"
       y1="5.0000005"
       x2="2.9997056"
       y2="5.0000005"
       gradientUnits="userSpaceOnUse" />
    <linearGradient
       inkscape:collect="always"
       xlink:href="#a-3"
       id="linearGradient894"
       x1="11.999705"
       y1="11.000001"
       x2="4.9997053"
       y2="11.000001"
       gradientUnits="userSpaceOnUse" />
    <linearGradient
       inkscape:collect="always"
       xlink:href="#a-7"
       id="linearGradient902"
       x1="2.9997056"
       y1="9.000001"
       x2="13.999705"
       y2="9.000001"
       gradientUnits="userSpaceOnUse" />
    <linearGradient
       inkscape:collect="always"
       xlink:href="#a-7"
       id="linearGradient904"
       x1="0.99970549"
       y1="3.0000005"
       x2="15.999705"
       y2="3.0000005"
       gradientUnits="userSpaceOnUse" />
    <linearGradient
       inkscape:collect="always"
       xlink:href="#b-6"
       id="linearGradient922"
       x1="15.999705"
       y1="5.0000005"
       x2="0.99970549"
       y2="5.0000005"
       gradientUnits="userSpaceOnUse" />
    <linearGradient
       inkscape:collect="always"
       xlink:href="#b-6"
       id="linearGradient924"
       x1="13.999705"
       y1="12.000001"
       x2="2.9997056"
       y2="12.000001"
       gradientUnits="userSpaceOnUse" />
  </defs>
  <sodipodi:namedview
     pagecolor="#ffffff"
     bordercolor="#666666"
     borderopacity="1"
     objecttolerance="10"
     gridtolerance="10"
     guidetolerance="10"
     inkscape:pageopacity="0"
     inkscape:pageshadow="2"
     inkscape:window-width="1366"
     inkscape:window-height="696"
     id="namedview26"
     showgrid="true"
     inkscape:zoom="7.375"
     inkscape:cx="-43.970676"
     inkscape:cy="3.7777059"
     inkscape:window-x="0"
     inkscape:window-y="0"
     inkscape:window-maximized="1"
     inkscape:current-layer="svg24">
    <inkscape:grid
       type="xygrid"
       id="grid840" />
  </sodipodi:namedview>
  <g
     id="g854"
     transform="rotate(90,7.4999995,8.499853)">
    <g
       id="g12"
       transform="rotate(180,7.999926,7.9999265)">
      <path
         style="fill:url(#linearGradient924);fill-opacity:1;stroke:url(#linearGradient902);stroke-width:0.99999899;stroke-linejoin:round;stroke-miterlimit:3"
         id="path2"
         stroke-miterlimit="3"
         d="m 3.500038,6.500008 h 9.999757 v 7 H 3.500038 Z"
         inkscape:connector-curvature="0" />
      <path
         style="fill:none;stroke:url(#linearGradient894);stroke-miterlimit:3"
         id="path4"
         stroke-miterlimit="3"
         d="m 4.500161,7.500008 h 7.999814 v 5.000031 H 4.500161 Z"
         inkscape:connector-curvature="0" />
      <g
         id="g10"
         style="stroke-width:1.00024903">
        <path
           style="fill:url(#linearGradient922);fill-opacity:1;fill-rule:evenodd;stroke:url(#linearGradient904);stroke-linejoin:round;stroke-miterlimit:0"
           id="path6"
           stroke-miterlimit="0"
           d="M 1.499825,1.496269 H 15.49988 V 8.499867 H 1.499825 Z"
           inkscape:connector-curvature="0" />
        <path
           style="fill:none;stroke:url(#linearGradient892);stroke-linecap:round;stroke-miterlimit:2"
           id="path8"
           stroke-miterlimit="2"
           d="M 2.500161,2.500069 H 14.500037 V 7.499963 H 2.500161 Z"
           inkscape:connector-curvature="0" />
      </g>
    </g>
    <g
       id="g22"
       transform="rotate(-90,15.999852,5e-7)"
       stroke-miterlimit="0"
       style="fill:#fcaf3e;stroke:#ce5c00;stroke-linejoin:round;stroke-miterlimit:0">
      <path
         id="path14"
         d="m 8.5,-9.50016 h 3 v 2 h -3 z"
         inkscape:connector-curvature="0" />
      <path
         id="path16"
         d="m 3.5,-9.50016 h 3 v 2 h -3 z"
         inkscape:connector-curvature="0" />
      <path
         id="path18"
         d="m -1.5,-9.50016 h 3 v 2 h -3 z"
         inkscape:connector-curvature="0" />
      <path
         id="path20"
         d="m 13.5,-9.50016 h 3 v 2 h -3 z"
         inkscape:connector-curvature="0" />
    </g>
  </g>
</svg>
